X:3
T:RVW2/1/3 Barbry Ellen
T:Sung by Mr. Ansell in the Bell, Kersey, Aug 31st 1907 (2 of 3)
L:1/8
Q:1/4=66
M:5/8
I:linebreak $
K:G
"^(editorial suggestion) " G | Bc d2 A | cB G2 G |[M:3/4] Bd g2 ag | e d2- d2 d |$
[M:5/8] ge d2 e/f/ | ggGAB | ce d2 A | BG- G2 |]
